-----BEGIN PGP PUBLIC KEY BLOCK-----

mQINBGnVC2kBEACz+6TyXlxzZCBA9M5lGRA+D+hY2Fz2+D9hqtcbTB/cR2yUtmZq
EAAjwMO6faSFqhxtNnDYKOe8s3lTIIl+Yr57CNLwXGVizk1ga16LHbrwecs0hs53
4+DeBeo9ooSec84nrgSda2AgeYzVTks9kuT572J0JvgDZZ/PKJFb7baFPqjlBxpH
+ufBNidKfQquAop9yg4F6HIOMqmLx6momBYACJHupoWdvEPPw92XkaHGXDzCu3AE
mNx83mbWC3bYRao0X9mgG45stVXVnvNJU09wzzn8KmGgjrrRKjlQpC79ARbA3aXg
EsQqWnXaOBofB7wIuo3mNMRfYgAyJ48d16DpEwOYL86QHRLTyu8Tj1PMRHMDji+Q
2RlzJ1C3Q8H59FUmTfYubmaGakVB5wW2TCi9euvKCP1CkQc4cGMIFxWkjVmVb6Pq
c+gVHBOdElQ5+HHpDTDeuVoQDXzmFXm4PygASBuxej06w91yf2UNbEldXqbSdzor
aV3EutcJEbYkdUA1FUJHpLHKEPVSXWvjQGFdno7VW+V84jfnPHzQ2DFpITb5Q2OH
RXqKXFE74YapHq6TRLDgm+JfQoQPuAkJIG6cCvMawIAL1iAZ6A+a3JUH9Zt+fwip
cruEoDgcDxyonT3D6nHDLGDYOoKjoJEV4Pk9pmdmAByg+9nT0hVvYvGQqQARAQAB
tDdNYXJjb3MgT2xpdmVpcmEgZGUgQ2FydmFsaG8gPG1hcmNvcy5jYXJ2YWxob0Bn
bWFpbC5jb20+iQJOBBMBCgA4FiEEIrz6v4zrFjXYjafVypSRiTHn1+UFAmnVC2kC
GwMFCwkIBwIGFQoJCAsCBBYCAwECHgECF4AACgkQypSRiTHn1+XDig//eCgpfVIY
k2lZL2KUuyFXLfdZfnYrsDQzrP2YABNydj5K5QSN9D1lvL9t99OdNxl28M5crklv
55s8pZMg1VUseNtEZJ5x3H+VTYG7ro4Nzk8VwiLQtVa8xcP0vMrVvl4AJ9etpwjx
ztkff0V2J2u2UJrbk/y6UwfUO8Q/YrdgppaxlMpKZyz5i7Y/IyWp4WWZ2ynXS9tZ
ikcXM5TpnsuOB4VzO55B6/R/xu3mTEaf/tRC+HW9S3xXQSGKkNHqqHn+4lLtG/Rq
OH2f4c1L7dX2EHbbAa3BWEGMAoEtsM6CpyKVkmKNUH0/MVL/w2T0WoT3Ht7WfeFv
KpqCFcm3j4sOr2OKAFqwpaW8iaoeGPkr45ZEZRj2tI6LpJlKyEW+h2sbSbrzHeJ1
FCO5Tc6bvOTXjcUbDTRos2F0e5E46Ymro94OzPW+vsCJY7XHvV3GsTD+PZIoUnyO
mylQ+KbWhU0XQjaHAANvFiMdkK3LCmbGWqmqcnUhGLRRMwWBIE4ZAChIiXx8qMMO
KDFmsyzDNEcJ7m0OhuqbM3NSZNUf4yDc6K/m0nYFt+wvdspglTouTXRna/iD0N4U
lI/iZb0f++WCIazQ9qgadkmT9kAkf6Vp5GSht7ubbX1ouaiCnwnDeLgC5lGKAcR6
2oDDVghYmufk03BYEuYMS5nF3xEaVI6Vm4+5Ag0EadULaQEQALKrFn8MIiOMHJ6D
HANkzHb4MA+s2BuQy1eO0oo2LZh088Xksn9tW4q0OgVKQHuy9o9f7rB+1evt6qL4
KTN+uggzLGKLxVmGr13NoLttCMGcQ8Wx3RpQp+Fdn46Evy1ObAGnzbY987Iy+zgF
BnQXWAZtcTbcvWXRFt15Fcza9jhNhCdcCo9S64ouzH6T7Ddf853f5M7SUjVHmHWb
PXx7sYXpwwXE4vE/CfQcAhNmFj0ss42ACs+18eAmKZNrgtk9N3RtW6UsQSIpJRY0
Q8z26xO6SYfU67q+g0jtlA81soEJKLL84HlyhyjK83UUsBHI8NN9jinhqmJZliW8
7KExjl7SmHGCOQnHojxQPRuhxJhHCN8HxFoksW/ero48zGs2Ci4Fom9bH2G1ZGTN
Zf9mFSjdAaZDqRVkOEPXbU5So5SyrIm+KlO4E9jgm7SvReBe4OBfweDGf2ZLljgw
Z7b4xhD6rPRgrwtAVQux+adL4uXu0aKNBHUXLR8vTJ5GNO3f8P4/C/WehKgNIv4J
CawXINHA1nIXKLjM1bFTV9Es2MD1mt+/shA20JsOBz++giKAwTK8Ab04nfc7cKaN
62ak/M/USiFiL9SZWhRaBZe9AIEKvZaj820Cf9+vBKd2G6D1Yeb893r7hpNYlFpe
Tw+CzjR73fo5QRjD+Lexjw6+wCYXABEBAAGJAjYEGAEKACAWIQQivPq/jOsWNdiN
p9XKlJGJMefX5QUCadULaQIbDAAKCRDKlJGJMefX5XeaEACMSzXbV/F4VvMjNLsp
aHsIjpAOBbWhfmiCbKoNQNsCx1WVVnriBNJheuh2jxMURV7Jwcc/7V9rZbyGm1/V
Se8xaTOCVUqNRILpJ9weB3Z3orXAr1EYe55UEs0WKdo5A8mNL8U/iswUX1FK3yYn
o8/X+lfIrhE+9+pHck0jcLIweyCoTK/5mHlJD8s8f3L792dT8tnogXVfnxUTYce6
Q48y15kiJfnw7Gqe+2opgaCIGoSZWq0qmdsDfO6ruu5LKM/B8iTmYp1Ov6GhIZGD
fNLbgUmq8KWf+yJtLdTMppmaqk+kivcanqqNjpb7Dsa0hFh6E47hAjkRsmPVgTMI
5EHQB+x4CT3seB/PUbdD+jkGa9iEDOWWxeusvHoZgWc4HJPyzLFaZxD1h6LUd8pl
xRNp5S2CLFKVQN9sb+nT03lAif7CmkPcDqi9nHiL1XfMCxBxGEN6HEhVnerW+dd2
OzZuzrZncBjgIzbWc5sCtfiIYcYLKQn7N9UoYO7X+RLBQNzew3c2qIH2R2QQFRum
clOwPPC4lgu5JkVuL58uZGy0kPf/gjhowb+kxMJjOR3n9aRAe6OzJmT1aWEoRyHO
57Sp6/CyhLjfX1xUjYA3as+N+i9wVo+j82f+fADRniaMlOFqODHAUE94KX0CfgFW
lIGloTQLdz6yyKCj3AG4iFOSxZkCDQRp3PlIARAArU14jLtm9PESDNQnx/tIf6hm
LT3SjIKlDfWyaKxgJi1thGHZ8d5sxgo+/lVhxh+dZ2U11KL/5tu4f9ZGUcQZ8Zox
+0qvD55AYKFjuyoGCDw7JiVRElV6GMObNiSPQS4rlUvjTWwVyxrPsaxYsuacZ6DM
dmVTKoH0wcEo/IdobxEj8WYBVZm3sqBk06Vq36pfit6oRTnC91sQ3QUB1x+hqLTq
5LekNviSZOlZGe0SAKxml9OQut7opaMcn+AsCNezp62nyD+DhpOqyXq03sYw5ymd
4Owz9XvfZw8iVGDSiQgNJlSC7xlOY05YiUsa4oc3HaCLZaibWXHBzHpj4CZXpV7W
vN0XXjYiNlslTDdEMDgYvHYva/uzn4zDNNaH8yoJVMF5ByupZ6nWILA/xuF8gemy
mFWGJ6nuIlxHzwzhsbCGSZxzw/L/aNGD+GDdyV+fLkkIQ3fBJMFd+tx60USZ9ifh
0cjAf00NOQY981A9wwlj2rlq10PS6wKxVhR9xH8wZRLaFXB10buzYU+dFzS2z7Lv
nVCAecH4NLM8LtEnVZ0P9hhZuLi1EcE3IwiwTHE3Zo1W9rtECU9bN9Wp6USKZfrl
DtNc2Y0Kt1gnhabYOSANjGHcse6ocXND2GzqqTWE+lW2+ddduMbd3JKK3b1Ia3lx
ql9TEM2l1VcuviHFuU8AEQEAAbQuTWFyY29zIE9saXZlaXJhIGRlIENhcnZhbGhv
IDxtb2NhcnZAcHJvdG9uLm1lPokCTgQTAQoAOBYhBOfAj6oWrqx1oi7W+GUXW1OM
7c5PBQJp3PlIAhsDBQsJCAcCBhUKCQgLAgQWAgMBAh4BAheAAAoJEGUXW1OM7c5P
WrQQAJa+uoi4DgCfV1fGbE8uWY/afn08NGp/5BnIWr3fhJCOAFvdRgu3MGf0VbeV
/SFJHjhhTiKak/Oggkyy4IjmWYT1B6b1oeVktMEAAPcPu/6iQZv9pP13jExFJqWg
WQlWFD9EoNHrpd4WIQ8Zzd/03g/TUvjLCefI201EHIsNMavjVo59MsaYCLxfkpy4
xItpxX+WxOGqFr/aqw7JsFKSx47ueCudg7k+Z1AUwdUZIyWWp0fqdRgKziF8lOcV
9AwrzTmtPVavlh5JMAjxodt5k5PC/Z3qN0YBDqVDvFQkbLB4GGxPMEq+bj0AEo6/
sSbx57NGe4Csk+3uZsZZErYulAz2RKJr11PcJU2eeeWS7yCSHfnsqqrMRbazvEgM
81lng8ajL/KX7IwbiGEdyAPpyCOOxWZwIFdJdhPI5zIrORbVJhj5p1EHkhyNyXsY
qkTloVNXiGxV1BxgIuUFSZMrnEAZX3No2kw1igOOSaEwCkupUHQ+UKpYwsui5jor
AJMcE/hy8ZSwczeUccnbPUo7JQ+doxlK9kWM1w+4efulZR7+EhkVFBUWVAiDgpFE
UNfVSCxW40rXCYTB4g7CpmH5dQk5kh0U1sDTxBMaszOLjjc+hGSgmheWRnN9ZgQT
B8ZKIwg2HtRjzLM2dpFL7fiM+MNpfuBV9ZTzgnpdGkjTLXIruQINBGnc+UgBEADG
DMYQaTExd3WShz7RMBn+sJ/k1HEq4/WW4a19uSJmHPqyT0n4NHXpu+d3aqP0sfzL
KeLvsK1vDguZenqAVdfOwZF3jlOmkG2tAt4WTtJH7rRS/ujd0PrZyY/wN8T6BTRv
pKbLKHfL8FMm6aLwTQvcdpddCEk/tXkj+6p51tsyR57O8BjCW6DFNWSyI0n15VbU
DBjdTp+7jPm+rSrywCuO0/86uQMrm6ijuYA+J9uunLjaiIQBj48hrwzVJKXTFF1Y
tBtXj9Ck9x1sJ1sNCZHFz/FS+SFvp7smTcr+PyFRa16gEst3uPB7ks4znsFkWRnH
83O8w54IvExO0Q06ZISJO7ZpJUgr8y+5WDmZPYRl+fX16ps2MFgTDpSDMQb4XwbR
hzLeTGHceV5xqtDDE3MWtt19lVjO9omjUBK0g7I693a6CKuwZSYqMzGLx/HfnAT0
fpoA0LTISWQ/WSlgWtkfWUg5hpjd9dDWcZcvDLIJ4iEgrQwVCp7M8OP08dVL9Xif
mzE7+rgzoxEkxRFSdO6sFxff1cYwsXiijcMQozjFILDq+yhGhGpYqTt2//uJUpOp
IUWAbhWJi6JBXirgHHZG/GBvA8Jex8RFbhfPwU4hl5pC47EiFUlxYQr++3198ij+
a/t6DR9ed8HoMYcQEhjmQ4f8ftGX7W4zW2A/Zbk9WQARAQABiQI2BBgBCgAgFiEE
58CPqhaurHWiLtb4ZRdbU4ztzk8FAmnc+UgCGwwACgkQZRdbU4ztzk/EAw//Z99G
MEHDRA/+fGvIu39RGgHecY6E/UgQA11CIAb6GboHi0UtLsi+VCoS19ROeLCl0VeV
kMQJovweL+NsLHjkCFKQqh7gJiTayEh5RB3GzLepWOGccOYDCm+49aT+6KTOnGR9
xK9mXfFBewgL9VPAN5Y8+0ADOXEuAJLFu4OdsJw3GzKTo04z3jyQAd0Fcww4mvxY
jQ+STCuUInX6dpnvE5L/bTgEF8tDxNidsNzQjokE8USppBdMf1/CmR9Uz58UaKDz
ybjATFMeK+OMlcSajkRD5RuWQzR6STd0bes97EYMTNy2sANCH3xEhFkLAsW17H8O
Oiqya2BwcSyo3yvDOjWXEd/+qjZGWwuJatpOoQVbEYgxK/pBMya5L9eLvVln9lQh
ZVfKZ1mLVn5Zugq8QXJS/SOiNEzSgO3aSsdpLH35+GghdbqSYjoeJ4D9gItX1pmI
jHhWbaSNpBwXjyeKLaw2HizP5IcmO2LvQDLsp62hAG1cNTykI/10TZjWR1yoDimk
7eqi5n7OkQnjav/uJPPiyWoVbY2DkePK/U5Am86ARrb7kzqUazFwMGfkFoQzNCYG
fIVRPVHQIqIXyGZoKw4NOG2OFVKBaCIq0BnkPSM5qg96NWNYop5DNza2P9JyZwQG
foPG9H6x6ChdYtRLI04kmT1pwXNaxmmcCtYljTA=
=Pafy
-----END PGP PUBLIC KEY BLOCK-----
